X:1
T:Anne Fraser MacKenzie
M:6/8
L:1/8
Q:180
K:G
D|G2G FGA|G2G AFD|B2B ABc|dcB AGF|
G2G FGA|B2B cBc| dcA DEF|1 G3- G2:|2 G3- G2B/c/|
d2B gfg|e2c ABc|B2G dcB|ABc def|g2g fge|
dcB cBc|dcA DEF|G3- G2B/c/|d2B gfg|e2c ABc|B2G dcB|
ABc def|g2g fge|dcB cBc|dcA DEF|G3- G2z|
